image/icon/Farm.svg

<!--version="1.0" encoding="UTF-8"--><svg version="1.1" id="Layer_1" xmlns="http://www.w3.org/2000/svg" width="32" height="42" xml:space="preserve"><g id="PathID_98" transform="matrix(1, 0, 0, 1, 15.6, 21)"><path style="fill: rgb(0, 0, 0); fill-opacity: 1;" d="M14.2-13.3q.1 2.25-.85 3.7l.45.55.15.9q-.15 1.75-1.65 2.6l-.1 1.05q-.4 1.05-1.3 1.75v.15Q11-.9 9.75.15l.1.45q.1 1.85-1.6 3 .4.1.7.45L9.9 5.4l.55.85q.35.5.3 1.05-.05.6-.45 1l.2.05q.65.2 1.35 1.25l.05.1 2.55 4.25.95 1.75.2.75v.2l-.1.55q-.4 1.15-1.8 2.2-1.25 1-2.85 1.05h-1l-.25-.05h-.2l-.35-.05q-.65-.05-1.1-.7-1.25-2.1-3.05-6.3l-.05-.15q-.45-.8-.4-1.45 0-.5.3-.9L1 11.6q-.75 3.3-1 7.15V21h-3.95v-1.75L-4 18.9l.05-7.2q-4.8-.45-7.9-3.45Q-15.3 4.8-15.6-.4v-1.1q.15-2.65 1.2-5.35.75-1.85 2.1-3.9 2.4-3.55 5.55-6.2l.95-.35h.2l.5.1q.25-1.2 1.1-2.35l.95-1.1 1-.35q.6 0 1 .35l1.1 1.2q.9 1.35 1.05 2.7.85-.1 1.35.55l.7 1.55q.2 1.2-.25 2.4l.2.2.4.75.45-.25.45-.1q.4-1.4 1.5-2.15.85-.6 1.65-.6.7 0 1.2.6 1.35-1.05 3.4-1.05 1.6 0 2 1.05l.05.5M.1-14.4q-1.25 1.1-1.7 2.1-.5.95-.25 1.9l.35.7q2.15-1.45 2.9-3 .75-1.6-.15-2.65L.1-14.4m6.65 1.7q-.75.55-.95 1.6-.4 1.7.5 4 1.35-.25 1.6-1.8.15-1-.1-2.65L7.55-13l-.8.3M8.7-9.2l1.15-.15q1.3-.25 2-.9 1.05-1.05.85-3.15-2.05-.3-3.25.9-.75.7-.8 2.1-.05.65.05 1.2m-1.35 2-.1.75 1.45.05 2.45-.35q.85-.35 1.15-1.1l.15-.65-3.85.1q-.95.4-1.25 1.2M3.8-9.85q-.75.65-.75 1.8Q3-6.2 4.35-3.95 5.6-4.4 5.6-6.1l-.5-2.75-.55-1.4q-.35.1-.75.4M1.9-11.3l-1.3.9Q-.8-9.3-1.35-8.35q-.6 1-.4 2l.3.75Q.9-6.95 1.8-8.55q.95-1.55.1-2.75M3.65-.15H5.2q1.8-.1 2.75-.5Q9.5-1.2 9.4-2.5l-4.35.2q-1 .45-1.3 1.35l-.1.8m-.6-2.1-.25-.9Q.05-2-1.15-.4q-.8 1-.7 2.1l.2.9 1.55-.75q1.65-1 2.45-2 .75-.95.7-2.1m2.3-1.1h1.5l2.6-.4q1.4-.6 1.35-1.8l-4.1.15q-.95.45-1.25 1.3l-.1.75M2.45-7.2Q-.1-5.95-1.15-4.35q-.7.95-.55 2l.25.85 1.4-.8Q1.5-3.35 2.2-4.35q1.05-1.55.25-2.85M8.35.55 3.75.8q-1.1.45-1.4 1.45l-.1.8H3.9l2.9-.55q1.05-.35 1.4-1.2l.15-.75M6.1 5.75Q3.75 6.7.55 7.05l1.3-3.8L1.75.8Q.8 3.2-.35 7.1l-1.15.05V2.8h-.95v4.3Q-6.8 6.7-9 3.2q-1.8-2.85-1.85-7-.05-3.3 2.5-7.65l2.6-3.7.2-.4-.05-.35h-.2q-2.95 2.5-5.25 5.9L-13-6.4q-1 2.5-1.05 4.8v1q.2 4.55 3.3 7.65 2.85 2.85 7.9 3.1h.4v8.4l-.05.3h.05l.95-.3q.2-3.95 1.25-8.45 2.7-.2 5.9-1.25.85.95.8 1.6l-.2.7-.3.55.35.95q1.65 3.85 2.95 6.1l1.55.05q1.15-.05 2-.75 1-.75 1.3-1.5v-.25l-.95-1.7-2.5-4.15-.6-.75H9.5q-.7 0-1.25-.45-1.2-1-.45-1.5.4-.3 1.45-.7L7.8 4.9l-1.7.85M-2.05-19.6l-.8.95q-.85 1.2-.85 2.3 0 1.75 1.65 3.2Q-.4-14.6-.4-16.35q0-1.1-.8-2.3l-.85-.95m-3.65 5q-.25.9.2 1.9.75 1.55 2.9 3 .9-1.05.1-2.6-.45-1-1.7-2.1l-1.15-.95-.35.75m1.05 4.2-1.3-.9-.3.8q-.2 1 .4 1.95.9 1.6 3.25 2.95.85-1.15-.1-2.75-.55-.95-1.95-2.05m-2.1 4.05q-.15 1.05.5 2 1.1 1.6 3.65 2.85.2-.3.25-.85.15-1.05-.55-2-.65-1-2.2-2l-1.4-.85-.25.85m-.1 3.2-.25.9q-.1 1.15.7 2.1 1.25 1.6 4 2.75l.2-.9q.1-1.1-.7-2.1l-2.45-1.95-1.5-.8"/><path style="fill: rgb(255, 255, 255); fill-opacity: 1;" d="M1.25-15.35q.9 1.05.15 2.65-.75 1.55-2.9 3l-.35-.7q-.25-.95.25-1.9.45-1 1.7-2.1l1.15-.95M7.55-13l.25 1.45q.25 1.65.1 2.65-.25 1.55-1.6 1.8-.9-2.3-.5-4 .2-1.05.95-1.6l.8-.3m1.1 2.6q.05-1.4.8-2.1 1.2-1.2 3.25-.9.2 2.1-.85 3.15-.7.65-2 .9L8.7-9.2q-.1-.55-.05-1.2m-.05 2 3.85-.1-.15.65q-.3.75-1.15 1.1L8.7-6.4l-1.45-.05.1-.75q.3-.8 1.25-1.2m-4.05-1.85.55 1.4.5 2.75q0 1.7-1.25 2.15Q3-6.2 3.05-8.05q0-1.15.75-1.8.4-.3.75-.4M1.8-8.55Q.9-6.95-1.45-5.6l-.3-.75q-.2-1 .4-2Q-.8-9.3.6-10.4l1.3-.9q.85 1.2-.1 2.75m1.95 7.6q.3-.9 1.3-1.35l4.35-.2q.1 1.3-1.45 1.85-.95.4-2.75.5H3.65l.1-.8m-1.4.8q-.8 1-2.45 2l-1.55.75-.2-.9q-.1-1.1.7-2.1Q.05-2 2.8-3.15l.25.9q.05 1.15-.7 2.1m3.1-3.95q.3-.85 1.25-1.3l4.1-.15q.05 1.2-1.35 1.8l-2.6.4h-1.5l.1-.75M2.2-4.35q-.7 1-2.25 2.05l-1.4.8-.25-.85q-.15-1.05.55-2 1.05-1.6 3.6-2.85.8 1.3-.25 2.85m6 5.65q-.35.85-1.4 1.2l-2.9.55H2.25l.1-.8q.3-1 1.4-1.45l4.6-.25-.15.75m-.4 3.6 1.45 2.15q-1.05.4-1.45.7-.75.5.45 1.5.55.45 1.25.45h.55l.6.75 2.5 4.15.95 1.7v.25q-.3.75-1.3 1.5-.85.7-2 .75l-1.55-.05q-1.3-2.25-2.95-6.1l-.35-.95.3-.55.2-.7q.05-.65-.8-1.6-3.2 1.05-5.9 1.25-1.05 4.5-1.25 8.45l-.95.3h-.05l.05-.3v-8.4h-.4q-5.05-.25-7.9-3.1-3.1-3.1-3.3-7.65v-1Q-14-3.9-13-6.4l1.95-3.6q2.3-3.4 5.25-5.9h.2l.05.35-.2.4-2.6 3.7q-2.55 4.35-2.5 7.65.05 4.15 1.85 7 2.2 3.5 6.55 3.9V2.8h.95v4.35l1.15-.05Q.8 3.2 1.75.8l.1 2.45-1.3 3.8q3.2-.35 5.55-1.3l1.7-.85m-9-23.55q.8 1.2.8 2.3 0 1.75-1.65 3.2-1.65-1.45-1.65-3.2 0-1.1.85-2.3l.8-.95.85.95m-4.15 3.3 1.15.95q1.25 1.1 1.7 2.1.8 1.55-.1 2.6-2.15-1.45-2.9-3-.45-1-.2-1.9l.35-.75m2.65 7q.95 1.6.1 2.75-2.35-1.35-3.25-2.95-.6-.95-.4-1.95l.3-.8 1.3.9q1.4 1.1 1.95 2.05M-6.5-7.2l1.4.85q1.55 1 2.2 2 .7.95.55 2-.05.55-.25.85-2.55-1.25-3.65-2.85-.65-.95-.5-2l.25-.85m1.15 4.85L-2.9-.4q.8 1 .7 2.1l-.2.9q-2.75-1.15-4-2.75-.8-.95-.7-2.1l.25-.9 1.5.8"/></g></svg>

<?xml version="1.0" encoding="UTF-8"?>
<svg version="1.1" id="Layer_1" xmlns="http://www.w3.org/2000/svg" xmlns:xlink="http://www.w3.org/1999/xlink" width="32px" height="42px" xml:space="preserve">
<g id="PathID_98" transform="matrix(1, 0, 0, 1, 15.6, 21)">
<path style="fill:#000000;fill-opacity:1" d="M14.2 -13.3Q14.3 -11.05 13.35 -9.6L13.8 -9.05L13.95 -8.15Q13.8 -6.4 12.3 -5.55L12.2 -4.5Q11.8 -3.45 10.9 -2.75L10.9 -2.6Q11 -0.9 9.75 0.15L9.85 0.6Q9.95 2.45 8.25 3.6Q8.65 3.7 8.95 4.05L9.9 5.4L10.45 6.25Q10.8 6.75 10.75 7.3Q10.7 7.9 10.3 8.3L10.5 8.35Q11.15 8.55 11.85 9.6L11.9 9.7L14.45 13.95L15.4 15.7L15.6 16.45L15.6 16.65L15.5 17.2Q15.1 18.35 13.7 19.4Q12.45 20.4 10.85 20.45L9.85 20.45L9.6 20.4L9.4 20.4L9.05 20.35Q8.4 20.3 7.95 19.65Q6.7 17.55 4.9 13.35L4.85 13.2Q4.4 12.4 4.45 11.75Q4.45 11.25 4.75 10.85L1 11.6Q0.25 14.9 0 18.75L0 21L-3.95 21L-3.95 19.25L-4 18.9L-3.95 11.7Q-8.75 11.25 -11.85 8.25Q-15.3 4.8 -15.6 -0.4L-15.6 -1.5Q-15.45 -4.15 -14.4 -6.85Q-13.65 -8.7 -12.3 -10.75Q-9.9 -14.3 -6.75 -16.95L-5.8 -17.3L-5.6 -17.3L-5.1 -17.2Q-4.85 -18.4 -4 -19.55L-3.05 -20.65L-2.05 -21Q-1.45 -21 -1.05 -20.65L0.05 -19.45Q0.95 -18.1 1.1 -16.75Q1.95 -16.85 2.45 -16.2L3.15 -14.65Q3.35 -13.45 2.9 -12.25L3.1 -12.05L3.5 -11.3L3.95 -11.55L4.4 -11.65Q4.8 -13.05 5.9 -13.8Q6.75 -14.4 7.55 -14.4Q8.25 -14.4 8.75 -13.8Q10.1 -14.85 12.15 -14.85Q13.75 -14.85 14.15 -13.8L14.2 -13.3M0.1 -14.4Q-1.15 -13.3 -1.6 -12.3Q-2.1 -11.35 -1.85 -10.4L-1.5 -9.7Q0.65 -11.15 1.4 -12.7Q2.15 -14.3 1.25 -15.35L0.1 -14.4M6.75 -12.7Q6 -12.15 5.8 -11.1Q5.4 -9.4 6.3 -7.1Q7.65 -7.35 7.9 -8.9Q8.05 -9.9 7.8 -11.55L7.55 -13L6.75 -12.7M8.7 -9.2L9.85 -9.35Q11.15 -9.6 11.85 -10.25Q12.9 -11.3 12.7 -13.4Q10.65 -13.7 9.45 -12.5Q8.7 -11.8 8.65 -10.4Q8.6 -9.75 8.7 -9.2M7.35 -7.2L7.25 -6.45L8.7 -6.4L11.15 -6.75Q12 -7.1 12.3 -7.85L12.45 -8.5L8.6 -8.4Q7.65 -8 7.35 -7.2M3.8 -9.85Q3.05 -9.2 3.05 -8.05Q3 -6.2 4.35 -3.95Q5.6 -4.4 5.6 -6.1L5.1 -8.85L4.55 -10.25Q4.2 -10.15 3.8 -9.85M1.9 -11.3L0.6 -10.4Q-0.8 -9.3 -1.35 -8.35Q-1.95 -7.35 -1.75 -6.35L-1.45 -5.6Q0.9 -6.95 1.8 -8.55Q2.75 -10.1 1.9 -11.3M3.65 -0.15L5.2 -0.15Q7 -0.25 7.95 -0.65Q9.5 -1.2 9.4 -2.5L5.05 -2.3Q4.05 -1.85 3.75 -0.95L3.65 -0.15M3.05 -2.25L2.8 -3.15Q0.05 -2 -1.15 -0.4Q-1.95 0.6 -1.85 1.7L-1.65 2.6L-0.1 1.85Q1.55 0.85 2.35 -0.15Q3.1 -1.1 3.05 -2.25M5.35 -3.35L6.85 -3.35L9.45 -3.75Q10.85 -4.35 10.8 -5.55L6.7 -5.4Q5.75 -4.95 5.45 -4.1L5.35 -3.35M2.45 -7.2Q-0.1 -5.95 -1.15 -4.35Q-1.85 -3.4 -1.7 -2.35L-1.45 -1.5L-0.05 -2.3Q1.5 -3.35 2.2 -4.35Q3.25 -5.9 2.45 -7.2M8.35 0.55L3.75 0.8Q2.65 1.25 2.35 2.25L2.25 3.05L3.9 3.05L6.8 2.5Q7.85 2.15 8.2 1.3L8.35 0.55M6.1 5.75Q3.75 6.7 0.55 7.05L1.85 3.25L1.75 0.8Q0.8 3.2 -0.35 7.1L-1.5 7.15L-1.5 2.8L-2.45 2.8L-2.45 7.1Q-6.8 6.7 -9 3.2Q-10.8 0.35 -10.85 -3.8Q-10.9 -7.1 -8.35 -11.45L-5.75 -15.15L-5.55 -15.55L-5.6 -15.9L-5.8 -15.9Q-8.75 -13.4 -11.05 -10L-13 -6.4Q-14 -3.9 -14.05 -1.6L-14.05 -0.6Q-13.85 3.95 -10.75 7.05Q-7.9 9.9 -2.85 10.15L-2.45 10.15L-2.45 18.55L-2.5 18.85L-2.45 18.85L-1.5 18.55Q-1.3 14.6 -0.25 10.1Q2.45 9.9 5.65 8.85Q6.5 9.8 6.45 10.45L6.25 11.15L5.95 11.7L6.3 12.65Q7.95 16.5 9.25 18.75L10.8 18.8Q11.95 18.75 12.8 18.05Q13.8 17.3 14.1 16.55L14.1 16.3L13.15 14.6L10.65 10.45L10.05 9.7L9.5 9.7Q8.8 9.7 8.25 9.25Q7.05 8.25 7.8 7.75Q8.2 7.45 9.25 7.05L7.8 4.9L6.1 5.75M-2.05 -19.6L-2.85 -18.65Q-3.7 -17.45 -3.7 -16.35Q-3.7 -14.6 -2.05 -13.15Q-0.4 -14.6 -0.4 -16.35Q-0.4 -17.45 -1.2 -18.65L-2.05 -19.6M-5.7 -14.6Q-5.95 -13.7 -5.5 -12.7Q-4.75 -11.15 -2.6 -9.7Q-1.7 -10.75 -2.5 -12.3Q-2.95 -13.3 -4.2 -14.4L-5.35 -15.35L-5.7 -14.6M-4.65 -10.4L-5.95 -11.3L-6.25 -10.5Q-6.45 -9.5 -5.85 -8.55Q-4.95 -6.95 -2.6 -5.6Q-1.75 -6.75 -2.7 -8.35Q-3.25 -9.3 -4.65 -10.4M-6.75 -6.35Q-6.9 -5.3 -6.25 -4.35Q-5.15 -2.75 -2.6 -1.5Q-2.4 -1.8 -2.35 -2.35Q-2.2 -3.4 -2.9 -4.35Q-3.55 -5.35 -5.1 -6.35L-6.5 -7.2L-6.75 -6.35M-6.85 -3.15L-7.1 -2.25Q-7.2 -1.1 -6.4 -0.15Q-5.15 1.45 -2.4 2.6L-2.2 1.7Q-2.1 0.6 -2.9 -0.4L-5.35 -2.35L-6.85 -3.15"/>
<path style="fill:#FFFFFF;fill-opacity:1" d="M1.25 -15.35Q2.15 -14.3 1.4 -12.7Q0.65 -11.15 -1.5 -9.7L-1.85 -10.4Q-2.1 -11.35 -1.6 -12.3Q-1.15 -13.3 0.1 -14.4L1.25 -15.35M7.55 -13L7.8 -11.55Q8.05 -9.9 7.9 -8.9Q7.65 -7.35 6.3 -7.1Q5.4 -9.4 5.8 -11.1Q6 -12.15 6.75 -12.7L7.55 -13M8.65 -10.4Q8.7 -11.8 9.45 -12.5Q10.65 -13.7 12.7 -13.4Q12.9 -11.3 11.85 -10.25Q11.15 -9.6 9.85 -9.35L8.7 -9.2Q8.6 -9.75 8.65 -10.4M8.6 -8.4L12.45 -8.5L12.3 -7.85Q12 -7.1 11.15 -6.75L8.7 -6.4L7.25 -6.45L7.35 -7.2Q7.65 -8 8.6 -8.4M4.55 -10.25L5.1 -8.85L5.6 -6.1Q5.6 -4.4 4.35 -3.95Q3 -6.2 3.05 -8.05Q3.05 -9.2 3.8 -9.85Q4.2 -10.15 4.55 -10.25M1.8 -8.55Q0.9 -6.95 -1.45 -5.6L-1.75 -6.35Q-1.95 -7.35 -1.35 -8.35Q-0.8 -9.3 0.6 -10.4L1.9 -11.3Q2.75 -10.1 1.8 -8.55M3.75 -0.95Q4.05 -1.85 5.05 -2.3L9.4 -2.5Q9.5 -1.2 7.95 -0.65Q7 -0.25 5.2 -0.15L3.65 -0.15L3.75 -0.95M2.35 -0.15Q1.55 0.85 -0.1 1.85L-1.65 2.6L-1.85 1.7Q-1.95 0.6 -1.15 -0.4Q0.05 -2 2.8 -3.15L3.05 -2.25Q3.1 -1.1 2.35 -0.15M5.45 -4.1Q5.75 -4.95 6.7 -5.4L10.8 -5.55Q10.85 -4.35 9.45 -3.75L6.85 -3.35L5.35 -3.35L5.45 -4.1M2.2 -4.35Q1.5 -3.35 -0.05 -2.3L-1.45 -1.5L-1.7 -2.35Q-1.85 -3.4 -1.15 -4.35Q-0.1 -5.95 2.45 -7.2Q3.25 -5.9 2.2 -4.35M8.2 1.3Q7.85 2.15 6.8 2.5L3.9 3.05L2.25 3.05L2.35 2.25Q2.65 1.25 3.75 0.8L8.35 0.55L8.2 1.3M7.8 4.9L9.25 7.05Q8.2 7.45 7.8 7.75Q7.05 8.25 8.25 9.25Q8.8 9.7 9.5 9.7L10.05 9.7L10.65 10.45L13.15 14.6L14.1 16.3L14.1 16.55Q13.8 17.3 12.8 18.05Q11.95 18.75 10.8 18.8L9.25 18.75Q7.95 16.5 6.3 12.65L5.95 11.7L6.25 11.15L6.45 10.45Q6.5 9.8 5.65 8.85Q2.45 9.9 -0.25 10.1Q-1.3 14.6 -1.5 18.55L-2.45 18.85L-2.5 18.85L-2.45 18.55L-2.45 10.15L-2.85 10.15Q-7.9 9.9 -10.75 7.05Q-13.85 3.95 -14.05 -0.6L-14.05 -1.6Q-14 -3.9 -13 -6.4L-11.05 -10Q-8.75 -13.4 -5.8 -15.9L-5.6 -15.9L-5.55 -15.55L-5.75 -15.15L-8.35 -11.45Q-10.9 -7.1 -10.85 -3.8Q-10.8 0.35 -9 3.2Q-6.8 6.7 -2.45 7.1L-2.45 2.8L-1.5 2.8L-1.5 7.15L-0.35 7.1Q0.8 3.2 1.75 0.8L1.85 3.25L0.55 7.05Q3.75 6.7 6.1 5.75L7.8 4.9M-1.2 -18.65Q-0.4 -17.45 -0.4 -16.35Q-0.4 -14.6 -2.05 -13.15Q-3.7 -14.6 -3.7 -16.35Q-3.7 -17.45 -2.85 -18.65L-2.05 -19.6L-1.2 -18.65M-5.35 -15.35L-4.2 -14.4Q-2.95 -13.3 -2.5 -12.3Q-1.7 -10.75 -2.6 -9.7Q-4.75 -11.15 -5.5 -12.7Q-5.95 -13.7 -5.7 -14.6L-5.35 -15.35M-2.7 -8.35Q-1.75 -6.75 -2.6 -5.6Q-4.95 -6.95 -5.85 -8.55Q-6.45 -9.5 -6.25 -10.5L-5.95 -11.3L-4.65 -10.4Q-3.25 -9.3 -2.7 -8.35M-6.5 -7.2L-5.1 -6.35Q-3.55 -5.35 -2.9 -4.35Q-2.2 -3.4 -2.35 -2.35Q-2.4 -1.8 -2.6 -1.5Q-5.15 -2.75 -6.25 -4.35Q-6.9 -5.3 -6.75 -6.35L-6.5 -7.2M-5.35 -2.35L-2.9 -0.4Q-2.1 0.6 -2.2 1.7L-2.4 2.6Q-5.15 1.45 -6.4 -0.15Q-7.2 -1.1 -7.1 -2.25L-6.85 -3.15L-5.35 -2.35"/>
</g>
</svg>
